fullscreen-exit.svg

<svg fill="currentColor" viewBox="0 0 24 24"><path d="M14 14h5v2h-3v3h-2zm-9 0h5v5H8v-3H5zm3-9h2v5H5V8h3zm11 3v2h-5V5h2v3z"/></svg>

<svg  viewBox="0 0 24 24" fill="currentColor"><path  d="M14,14H19V16H16V19H14V14M5,14H10V19H8V16H5V14M8,5H10V10H5V8H8V5M19,8V10H14V5H16V8H19Z"/></svg>
